static/assets/img/icons/theme/navigation/angle-double-down.svg

<svg height="24" viewBox="0 0 24 24" width="24" xmlns="http://www.w3.org/2000/svg"><g fill="none" fill-rule="evenodd"><path d="m0 0h24v24h-24z" opacity="0"/><g fill="#000" fill-rule="nonzero"><path d="m8.2928955 3.20710089c-.39052429-.39052429-.39052429-1.02368927 0-1.41421356.3905243-.39052429 1.02368928-.39052429 1.41421357 0l6.00000003 6c.3785789.37857893.3918245.98816537.0300473 1.38283141l-5.5 5.99999996c-.37319238.407119-1.00575975.434622-1.41287874.0614295-.40711899-.3731924-.43462192-1.0057597-.06142951-1.4128787l4.85301635-5.29419964z" transform="matrix(0 1 -1 0 20.5 -3.500006)"/><path d="m6.70710678 19.2071045c-.39052429.3905243-1.02368927.3905243-1.41421356 0s-.39052429-1.0236893 0-1.4142136l5.99999998-6c.378579-.3785789.9881654-.3918245 1.3828314-.0300473l6 5.5c.407119.3731924.4346219 1.0057598.0614295 1.4128787-.3731924.407119-1.0057597.434622-1.4128787.0614296l-5.2941997-4.8530164z" opacity=".3" transform="matrix(-1 0 0 -1 24.000006 30.999994)"/></g></g></svg>

<svg width="24px" height="24px" viewBox="0 0 24 24" version="1.1" xmlns="http://www.w3.org/2000/svg" xmlns:xlink="http://www.w3.org/1999/xlink">
    <title>Icon For Angle-double-down</title>
    <g stroke="none" stroke-width="1" fill="none" fill-rule="evenodd">
        <polygon points="0 0 24 0 24 24 0 24" opacity="0"></polygon>
        <path d="M8.2928955,3.20710089 C7.90237121,2.8165766 7.90237121,2.18341162 8.2928955,1.79288733 C8.6834198,1.40236304 9.31658478,1.40236304 9.70710907,1.79288733 L15.7071091,7.79288733 C16.085688,8.17146626 16.0989336,8.7810527 15.7371564,9.17571874 L10.2371564,15.1757187 C9.86396402,15.5828377 9.23139665,15.6103407 8.82427766,15.2371482 C8.41715867,14.8639558 8.38965574,14.2313885 8.76284815,13.8242695 L13.6158645,8.53006986 L8.2928955,3.20710089 Z" fill="#000000" fill-rule="nonzero" transform="translate(12.000003, 8.499997) scale(-1, -1) rotate(-90.000000) translate(-12.000003, -8.499997) "></path>
        <path d="M6.70710678,19.2071045 C6.31658249,19.5976288 5.68341751,19.5976288 5.29289322,19.2071045 C4.90236893,18.8165802 4.90236893,18.1834152 5.29289322,17.7928909 L11.2928932,11.7928909 C11.6714722,11.414312 12.2810586,11.4010664 12.6757246,11.7628436 L18.6757246,17.2628436 C19.0828436,17.636036 19.1103465,18.2686034 18.7371541,18.6757223 C18.3639617,19.0828413 17.7313944,19.1103443 17.3242754,18.7371519 L12.0300757,13.8841355 L6.70710678,19.2071045 Z" fill="#000000" fill-rule="nonzero" opacity="0.3" transform="translate(12.000003, 15.499997) scale(-1, -1) rotate(-360.000000) translate(-12.000003, -15.499997) "></path>
    </g>
</svg>
